src/22x22/places/folder-gruvbox-material-red-mail.svg

<?xml version="1.0" encoding="UTF-8"?>
<svg width="22" height="22" version="1" xmlns="http://www.w3.org/2000/svg">
 <rect x="1" y="8.5" width="20" height="12" rx="1" ry="1" opacity=".2"/>
 <path d="m1 16c0 0.554 0.446 1 1 1h18c0.554 0 1-0.446 1-1v-11c0-0.554-0.446-1-1-1h-9c-1.5 0-2-2-3.5-2h-5.5c-0.554 0-1 0.446-1 1" fill="#c14a4a"/>
 <rect x="1" y="7.5" width="20" height="12" rx="1" ry="1" opacity=".2"/>
 <rect x="3" y="6" width="16" height="8" rx="1" ry="1" fill="#f0ddc3"/>
 <rect x="1" y="8" width="20" height="12" rx="1" ry="1" fill="#ea6962"/>
 <path d="m2 2c-0.554 0-1 0.446-1 1v0.5c0-0.554 0.446-1 1-1h5.5c1.5 0 2 2 3.5 2h9c0.554 0 1 0.446 1 1v-0.5c0-0.554-0.446-1-1-1h-9c-1.5 0-2-2-3.5-2z" fill="#f0ddc3" opacity=".1"/>
 <path d="m11.5 10c-1.933 0-3.5 1.567-3.5 3.5s1.567 3.5 3.5 3.5h2.188s0.41 0 0.437-0.438c0-0.437-0.437-0.437-0.437-0.437h-2.188c-1.45 0-2.625-1.175-2.625-2.625s1.175-2.625 2.625-2.625 2.625 1.175 2.625 2.625v0.438c0 0.241-0.196 0.437-0.437 0.437-0.242 0-0.438-0.196-0.438-0.437v-0.438c0-0.966-0.783-1.75-1.75-1.75-0.966 0-1.75 0.784-1.75 1.75 0 0.967 0.784 1.75 1.75 1.75 0.458 0 0.871-0.181 1.183-0.468 0.249 0.296 0.617 0.468 1.005 0.468 0.725 0 1.312-0.588 1.312-1.313v-0.437c0-1.933-1.567-3.5-3.5-3.5zm0 2.625c0.483 0 0.875 0.392 0.875 0.875s-0.392 0.875-0.875 0.875-0.875-0.392-0.875-0.875 0.392-0.875 0.875-0.875z" fill="#543937"/>
</svg>

<svg xmlns="http://www.w3.org/2000/svg" width="22" height="22" version="1">
 <rect style="opacity:0.2" width="20" height="12" x="1" y="8.5" rx="1" ry="1"/>
 <path style="fill:#c14a4a" d="M 1,16 C 1,16.554 1.446,17 2,17 H 20 C 20.554,17 21,16.554 21,16 V 5 C 21,4.446 20.554,4 20,4 H 11 C 9.5,4 9,2 7.5,2 H 2 C 1.446,2 1,2.446 1,3"/>
 <rect style="opacity:0.2" width="20" height="12" x="1" y="7.5" rx="1" ry="1"/>
 <rect style="fill:#f0ddc3" width="16" height="8" x="3" y="6" rx="1" ry="1"/>
 <rect style="fill:#ea6962" width="20" height="12" x="1" y="8" rx="1" ry="1"/>
 <path style="opacity:0.1;fill:#f0ddc3" d="M 2,2 C 1.446,2 1,2.446 1,3 V 3.5 C 1,2.946 1.446,2.5 2,2.5 H 7.5 C 9,2.5 9.5,4.5 11,4.5 H 20 C 20.554,4.5 21,4.946 21,5.5 V 5 C 21,4.446 20.554,4 20,4 H 11 C 9.5,4 9,2 7.5,2 Z"/>
 <path style="fill:#543937" d="M 11.5,10 C 9.567,10 8,11.567 8,13.5 8,15.433 9.567,17 11.5,17 H 13.688 C 13.688,17 14.098,17 14.125,16.562 14.125,16.125 13.688,16.125 13.688,16.125 H 11.5 C 10.05,16.125 8.875,14.95 8.875,13.5 8.875,12.05 10.05,10.875 11.5,10.875 12.95,10.875 14.125,12.05 14.125,13.5 V 13.938 C 14.125,14.179 13.929,14.375 13.688,14.375 13.446,14.375 13.25,14.179 13.25,13.938 V 13.5 C 13.25,12.534 12.467,11.75 11.5,11.75 10.534,11.75 9.75,12.534 9.75,13.5 9.75,14.467 10.534,15.25 11.5,15.25 11.958,15.25 12.371,15.069 12.683,14.782 12.932,15.078 13.3,15.25 13.688,15.25 14.413,15.25 15,14.662 15,13.937 V 13.5 C 15,11.567 13.433,10 11.5,10 Z M 11.5,12.625 C 11.983,12.625 12.375,13.017 12.375,13.5 12.375,13.983 11.983,14.375 11.5,14.375 11.017,14.375 10.625,13.983 10.625,13.5 10.625,13.017 11.017,12.625 11.5,12.625 Z"/>
</svg>
